X:651
T:Speed the Plough
M:4/4
L:1/8
K:A
E|:"A"ABcd efec|efec eaec|"D"dfdB "A"cecA|"B"BdBA "E"GEFG|
"A"ABcd efec|efec eaec|\
"D"dfdB "A"cecA|1 "E"BdBG "A"A2 E2:|2 "E"BdBG A2 "A"(3efg
|:"A"a2 ag aece|aAgA fAeA|"D"dgdB "A"cdcA|"B"BdBA "E"GEfg|
"A"a2 ag aece|aAgA fAeA|\
"D"dfdB "A"cdcA|1 "E"BdBG "A"A2 (3efg :|2 "E"BdBG "A"A2|
